X:1
T:Tell Me the Stories of Jesus
T:Tell Me the Stories of Jesus
T:Frederic Arthur Challinor, 1903
T:William Henry Parker, 1885
T:Public Domain Courtesy of the Cyber Hymnal™
C:Frederic Arthur Challinor, 1903
Z:Public Domain
Z:Courtesy of the Cyber Hymnal™
%%score 1 ( 2 3 )
L:1/8
Q:1/4=90
M:6/8
K:C
V:1 treble 
V:2 bass 
V:3 bass 
V:1
 [EG][CE][DF] [EG][GB][FA] | [EG]3 [CE]3 | [B,F]3 [B,G]2 [B,D] | [CE]6 | %4
w: 1.~Tell me the stor- ies of|Je- sus|I love to|hear;|
w: 2.~First let me hear how the|child- ren|stood round His|knee,|
w: 3.~Tell me, in ac- cents of|won- der,|how rolled the|sea,|
w: 4.~In- to the ci- ty I’d|fol- low|the child- ren’s|band,|
w: 5.~Tell how the spar- row that|twit- ters|on yon- der|tree,|
w: 6.~Show me that scene in the|gar- den,|of bit- ter|pain.|
 [EG][CE][DF] [EG][GB][FA] | [EG]3 [EA]3 | [DB]3 [CA]2 [CD] | [B,G]6 | [Fd]3 [FB]2 [FG] | %9
w: Things I would ask Him to|tell me|if He were|here;|Scenes by the|
w: And I shall fan- cy His|bless- ing|rest- ing on|me;|Words full of|
w: Toss- ing the boat in a|temp- est|on Gal- i-|lee;|And how the|
w: Wav- ing a branch of the|palm tree|high in my|hand.|One of His|
w: And the sweet mea- dow- side|li- ly|may speak to|me—|Give me their|
w: Show me the cross where my|Sav- ior|for me was|slain.|Sad ones or|
 [EA]3 [EG]3 | [Ed]3 [Ec]2 [E_B] | ([EA]3 [FA]3) | [Fe]3 [Fd]2 [FB] | [Ec]3 [^D^F]3 | %14
w: way- side,|tales of the|sea, *|Stor- ies of|Je- sus,|
w: kind- ness,|deeds full of|grace, *|All in the|love light|
w: Mak- er,|read- y and|kind, *|Chid- ed the|bil- lows,|
w: her- alds,|yes, I would|sing *|Loud- est ho-|san- nas,|
w: mes- sage,|for I would|hear *|How Je- sus|taught us|
w: bright ones,|so that they|be *|Stor- ies of|Je- sus,|
 [EG]3 [Fd]2 [FG] | [Ec]6 |] %16
w: tell them to|me.|
w: of Je- sus’|face.|
w: and hushed the|wind.|
w: “Je- sus is|King!”|
w: our Fa- ther’s|care.|
w: tell them to|me.|
V:2
 G,6- | G,6 | G,6- | [C,G,]6 | G,6- | G,6 | [D,G,]3 [D,^F,]3 | [G,,G,]6 | [G,B,]3 D2 B, | [C,C]6 | %10
 [C,_B,]3 A,2 G, | ([^C,G,]3 F,G,A,) | [G,B,]3 [G,B,]2 [G,D] | [A,C]3 [A,C]3 | %14
 [G,C]3 [G,B,]2 [G,B,] | [C,C]6 |] %16
V:3
 C,3 G,,3 | C,3 G,,3 | D,3 G,,3 | x6 | C,3 G,,3 | C,3 ^C,3 | x6 | x6 | x3 G,3 | x6 | x3 C,3 | %11
 x3 D,3 | x6 | x6 | x6 | x6 |] %16

